flaticon/essential/controls-7.svg

<svg xmlns="http://www.w3.org/2000/svg" width="32" height="32" viewBox="0 0 24 24">
    <path d="M 23.601562 0 L 0.398438 0 C 0.179688 0 0 0.179688 0 0.398438 L 0 23.601562 C 0 23.820312 0.179688 24 0.398438 24 L 23.601562 24 C 23.820312 24 24 23.820312 24 23.601562 L 24 0.398438 C 24 0.179688 23.820312 0 23.601562 0 Z M 23.199219 23.199219 L 0.800781 23.199219 L 0.800781 0.800781 L 23.199219 0.800781 Z M 23.199219 23.199219"/>
    <path d="M2.398438 4.800781L3.601562 4.800781 3.601562 6.398438C3.601562 6.621094 3.777344 6.800781 4 6.800781L8.800781 6.800781C9.019531 6.800781 9.199219 6.621094 9.199219 6.398438L9.199219 4.800781 21.601562 4.800781C21.820312 4.800781 22 4.621094 22 4.398438 22 4.179688 21.820312 4 21.601562 4L9.199219 4 9.199219 2.398438C9.199219 2.179688 9.019531 2 8.800781 2L4 2C3.777344 2 3.601562 2.179688 3.601562 2.398438L3.601562 4 2.398438 4C2.179688 4 2 4.179688 2 4.398438 2 4.621094 2.179688 4.800781 2.398438 4.800781zM4.398438 2.800781L8.398438 2.800781 8.398438 6 4.398438 6zM2.398438 12.398438L9.199219 12.398438 9.199219 14C9.199219 14.222656 9.378906 14.398438 9.601562 14.398438L14.398438 14.398438C14.621094 14.398438 14.800781 14.222656 14.800781 14L14.800781 12.398438 21.601562 12.398438C21.820312 12.398438 22 12.222656 22 12 22 11.777344 21.820312 11.601562 21.601562 11.601562L14.800781 11.601562 14.800781 10C14.800781 9.777344 14.621094 9.601562 14.398438 9.601562L9.601562 9.601562C9.378906 9.601562 9.199219 9.777344 9.199219 10L9.199219 11.601562 2.398438 11.601562C2.179688 11.601562 2 11.777344 2 12 2 12.222656 2.179688 12.398438 2.398438 12.398438zM10 10.398438L14 10.398438 14 13.601562 10 13.601562zM2.398438 20L14.800781 20 14.800781 21.601562C14.800781 21.820312 14.980469 22 15.199219 22L20 22C20.222656 22 20.398438 21.820312 20.398438 21.601562L20.398438 20 21.601562 20C21.820312 20 22 19.820312 22 19.601562 22 19.378906 21.820312 19.199219 21.601562 19.199219L20.398438 19.199219 20.398438 17.601562C20.398438 17.378906 20.222656 17.199219 20 17.199219L15.199219 17.199219C14.980469 17.199219 14.800781 17.378906 14.800781 17.601562L14.800781 19.199219 2.398438 19.199219C2.179688 19.199219 2 19.378906 2 19.601562 2 19.820312 2.179688 20 2.398438 20zM15.601562 18L19.601562 18 19.601562 21.199219 15.601562 21.199219zM15.601562 18"/>
</svg>

<svg xmlns="http://www.w3.org/2000/svg" width="32" height="32" viewBox="0 0 24 24">
    <path d="M23.602 0H.398A.4.4 0 0 0 0 .398v23.204A.4.4 0 0 0 .398 24h23.204a.4.4 0 0 0 .398-.398V.398A.4.4 0 0 0 23.602 0zm-.403 23.2H.801V.8h22.398zm0 0"/>
    <path d="M2.398 4.8h1.204v1.598c0 .223.175.403.398.403h4.8c.22 0 .4-.18.4-.403V4.801h12.402a.401.401 0 0 0 0-.801H9.199V2.398A.4.4 0 0 0 8.801 2H4a.398.398 0 0 0-.398.398V4H2.398a.4.4 0 0 0 0 .8zm2-2h4V6h-4zm0 0M2.398 12.398H9.2V14c0 .223.18.398.403.398h4.796a.398.398 0 0 0 .403-.398v-1.602h6.8a.398.398 0 1 0 0-.796h-6.8V10a.398.398 0 0 0-.403-.398H9.602a.398.398 0 0 0-.403.398v1.602H2.4a.398.398 0 1 0 0 .796zm7.602-2h4v3.204h-4zm0 0M2.398 20h12.403v1.602a.4.4 0 0 0 .398.398H20c.223 0 .398-.18.398-.398V20h1.204a.4.4 0 0 0 0-.8h-1.204v-1.598a.398.398 0 0 0-.398-.403h-4.8a.401.401 0 0 0-.4.403v1.597H2.399a.401.401 0 0 0 0 .801zm13.204-2h4v3.2h-4zm0 0"/>
</svg>
